!!!COM: Bach, Johann Sebastian
!!!OTL: 157. Wo Gott zum Haus nicht gibt
!!!ONM: No. 157
!!!OCL: Erk
!!!SCA: BWV 438
!!!YOE: Riemenschneider, Albert
!!!OPR: 371 Harmonized Chorales and 69 Chorale Melodies with Figured Bass
!!!OPT: Bach Chorale Harmonizations
**harm	**root	**kern	**kern	**kern	**kern
!	!	!bass	!tenor	!alto	!sprno
*Iorgan	*Iorgan	*Iorgan	*Iorgan	*Iorgan	*Iorgan
*k[b-e-a-]	*k[b-e-a-]	*k[b-e-a-]	*k[b-e-a-]	*k[b-e-a-]	*k[b-e-a-]
*E-:	*E-:	*E-:	*E-:	*E-:	*E-:
*met(c)	*met(c)	*met(c)	*met(c)	*met(c)	*met(c)
*M4/4	*M4/4	*M4/4	*M4/4	*M4/4	*M4/4
*MM60	*MM60	*MM60	*MM60	*MM60	*MM60
I	4FF	8E-	8G	4B-	4e-
.	.	8F	8A-	.	.
=1	=1	=1	=1	=1	=1
Ib	4FF	8G	8B-	8e-	4b-
.	.	8A-	8c	8f	.
iiib	8AA	4B-	4d	8g	8b-
V7	8CC	.	.	[8f	8a-
I	4FF	4E-	4B-	8f]	4g
.	.	.	.	[8e-	.
V	4CC	4BB-	4B-	8e-]	4f
.	.	.	.	8d	.
=2	=2	=2	=2	=2	=2
I	4FF	4E-	4B-	8e-	4g
.	.	.	.	8d	.
II	4GG	4F	4F	4c	4a
V;	4CC;	4BB-;	4F;	4d;	4b-;
Vb	4CC	4D	4B-	[4f	4b-
=3	=3	=3	=3	=3	=3
I	4FF	4E-	[4B-	8f]	4g
.	.	.	.	8e-	.
Vb	8CC	8D	8B-]	8f	4b-
iiib	8AA	8BB-	8d	[8g	.
IV7b	8BB-	8C	8e-	8g]	4a-
ii	8GG	8F	8c	16f	.
.	.	.	.	16e-	.
Vb	4CC	8D	4B-	[4f	4b-
.	.	8BB-	.	.	.
=4	=4	=4	=4	=4	=4
I	4FF	4E-	4B-	8f]	4g
.	.	.	.	4e-	.
V	4CC	4BB-	8B-	.	4f
.	.	.	8A-	8d	.
I;	4FF;	4EE-;	4G;	4B-;	4e-;
I	4FF	4E-	4G	4e-	4b-
=5	=5	=5	=5	=5	=5
!!linebreak: 2
IV	4BB-	8AA-	4A-	4e-	4cc
.	.	8BB-	.	.	.
IVb	4BB-	8C	8E-	4e-	4cc
.	.	8D	8F	.	.
I	4FF	8E-	4G	4.B-	4g
.	.	8F	.	.	.
Ib	8FF	8G	8e-	.	4b-
viioD7/ii	8FF#	8E	8d-	[8g	.
=6	=6	=6	=6	=6	=6
ii	4GG	8F	4c	8g]	4a-
.	.	8G	.	16f	.
.	.	.	.	16e	.
iib	4GG	8A-	4c	[4f	4a-
.	.	8B-	.	.	.
V/ii;	4DD;	4c;	4c;	8f]	4g;
.	.	.	.	8e;	.
vi	4DD	4C	4c	4g	4ee-
=7	=7	=7	=7	=7	=7
iii	4AA	4G	4B-	8g	4dd
.	.	.	.	8f	.
IV	4BB-	4A-	8c	8e-	4cc
.	.	.	8d	8f	.
I	4FF	8E-	4e-	8g	4.b-
.	.	8D	.	8f	.
vi7	4DD	4C	4G	4e-	.
.	.	.	.	.	8cc
=8	=8	=8	=8	=8	=8
ii7	4GG	4F	4.A-	4.e-	8a-
.	.	.	.	.	8g
V	4CC	4BB-	.	.	4f
.	.	.	16B-	8d	.
.	.	.	16A-	.	.
I;	4FF;	4E-;	4G;	4B-;	4e-;
==	==	==	==	==	==
*-	*-	*-	*-	*-	*-
!!!CDT: 1685/3//-1750/7/28
!!!OCY: Deutschland
!!!AGN: chorale
!!!AST: Baroque
!!!AIN: vox
!!!YOY: 1941
!!!PPP: New York; London
!!!PPR: G. Schirmer
!!!ENC: David Huron
!!!EED: David Huron
!!!YEN: United States of America
!!!YER: 1992
!!!YEC: Copyright 1992 David Huron
!!!YEM: Rights to all derivative electronic formats reserved.
!!!YER: March 20, 1996
!!!AMT: simple quadruple
!!!EEV: 1.1
!!chor2scor: -l 2 -s 0.6 -o %b.pmx
